X: 19
T: Miss Hutton's Reel
R: reel, hornpipe
B: Cahusac "Annual Collection of Twenty-four favorite Country Dances For the Year 1809", p.10 #1
F: http://imslp.org/wiki/24_Country_Dances_for_the_Year_1809_%28Various%29
F: http://javanese.imslp.info/files/imglnks/usimg/0/0d/IMSLP351863-PMLP71785-wm_cahusac_24_dances_1809.pdf
Z: 2015 by John Chambers  <jc:trillian.mit.edu>
N: Bars 6, 10 have an extra 1/4 note; not fixed.
M: 2/4
L: 1/16
K: D
% - - - - - - - - - - - - - - - - - - - - - - - - - - - - -
|:\
d'3a f>da>f | g>fe>d ceea |\
d'3a f>da>d | c>de>f d2d2 :|\
|:\
D>FA>d f>da>f | e>cA>f e>c A2z2 |
D>FA>d f>da>f | g>ec>e d2z2 :|\
|:\
a>fd'>c' b>ag>f | e>cA>f e>c HA3 F |\
D>EF>G A>df>d | g>ea>c | d2d2 :|
% - - - - - - - - - - Dance description - - - - - - - - - -
%%begintext align
%% Hands 4 back again, Down the mid:
%% up again, Swing corners.
%%endtext

%%sep 1 1 500
%%sep 1 1 500
